icons/1_Primary/Fanatical.svg

<svg xmlns="http://www.w3.org/2000/svg" width="1024" height="1024" fill="none">
   <g clip-path="url(#a)">
      <path fill="#F8C18C" d="M512 1024c282.77 0 512-229.23 512-512S794.77 0 512 0 0 229.23 0 512s229.23 512 512 512Z"/>
      <path fill="#fff" d="M259.8 468.5h364.4c1.5 0 2.9-.9 3.5-2.2l33.1-71.7c.9-1.9.1-4.2-1.9-5.1-.5-.2-1.1-.4-1.6-.4H287.5C331 309.8 415.2 256 512 256c141.3 0 255.8 114.6 255.8 256S653.3 768 512 768 256.2 653.4 256.2 512c0-14.8 1.2-29.4 3.6-43.5Zm157.5 207.3c0 2.8 2.3 5.1 5.1 5.1h6.6l80.4-101.1h63.3c1.5 0 2.9-.9 3.5-2.2l33.1-71.6c.2-.5.4-1.1.4-1.6 0-2.1-1.7-3.8-3.8-3.8H417.3v175.2Z"/>
   </g>
   <defs>
      <clipPath id="a">
         <path fill="#fff" d="M0 0h1024v1024H0z"/>
      </clipPath>
   </defs>
</svg>

<svg width="1024" height="1024" viewBox="0 0 1024 1024" fill="none" xmlns="http://www.w3.org/2000/svg">
<g clip-path="url(#clip0_2_2151)">
<path d="M512 1024C794.77 1024 1024 794.77 1024 512C1024 229.23 794.77 0 512 0C229.23 0 0 229.23 0 512C0 794.77 229.23 1024 512 1024Z" fill="#F8C18C"/>
<path d="M259.8 468.5H624.2C625.7 468.5 627.1 467.6 627.7 466.3L660.8 394.6C661.7 392.7 660.9 390.4 658.9 389.5C658.4 389.3 657.8 389.1 657.3 389.1H287.5C331 309.8 415.2 256 512 256C653.3 256 767.8 370.6 767.8 512C767.8 653.4 653.3 768 512 768C370.7 768 256.2 653.4 256.2 512C256.2 497.2 257.4 482.6 259.8 468.5ZM417.3 675.8C417.3 678.6 419.6 680.9 422.4 680.9H429L509.4 579.8H572.7C574.2 579.8 575.6 578.9 576.2 577.6L609.3 506C609.5 505.5 609.7 504.9 609.7 504.4C609.7 502.3 608 500.6 605.9 500.6H417.3V675.8Z" fill="white"/>
</g>
<defs>
<clipPath id="clip0_2_2151">
<rect width="1024" height="1024" fill="white"/>
</clipPath>
</defs>
</svg>
